X:1
T:Buxtehude - Chaconne in C Minor. {Professional production full score.}
T:Canzonetta in D Minor BuxWV 168
%%score { ( 1 2 5 ) | ( 3 4 ) }
L:1/8
Q:1/4=90
M:4/4
K:C
V:1 treble nm="Pipe Organ" snm="Org."
V:2 treble 
V:5 treble 
V:3 bass 
V:4 bass 
V:1
!mf! PA4 Ddc_B | A/_B/c F/G/A DE/F/ MEF/G/ | FGAB cdef | g z/ d/ e z/ B/ cAGF | Eedc BP^c d2- | %5
 de/d/ P^c2 d2 Pe2 | f z/ e/ d z/ ^c/ dA/_B/=cMB | A4 z4 | z8 | z8 | z2 e2 Aagf | %11
 e/f/g c/d/e A2 B2 | c3 d e2 c2 | B4 A4 | A6 P_B2 | c4- c_BPBc/B/ | A4 z4 | z4 z2 A2 | %18
 Eedc B/c/d G/A/B | E^F/^G/ MA2- AB/A/ PG2 | A2 B2 c z/ B/ A z/ ^G/ | A4 z2 A2 | %22
 Ddc_B A/B/c F/G/A | D2 PE2 F x z2 | z _BAG Ad c=B | c/d/e A/B/c F2 PG2 | A z/ c/ d z/ A/ _BBAG | %27
 AGAE/F/ GA M_B2 |[Q:1/4=70] A8[Q:1/4=40] ||[M:3/4][Q:1/4=110] z6 | z6 | A2 Ddc_B | A2 _B2 c2 | %33
 FG A2 B2 | c4 B2- | B2 A2 ^G2 | A6 | e2 Aagf | e2 Pf2 g2 | cfdgfe | f2 Pe2 f2 | g2 f2 Med | %42
 e2 z2 z2 | c2 _BA TG2 | A6- | AAMGF G2 | c2 z2 z2 | ^c2 Pd2 Me2 | f3 fed | c2 Pd2 e2 | %50
 A2 P_B2 c2 | z c_BA G2 | z AGF E2 | F4 G2 | A2 G4- | G2 F2 PE2 | F4 G2- | G4- GF- | F F2 F PE2 | %59
[M:4/4] F>GA>B c2 d>e | f2 g2 a d2 P^c | dA _B3 G A2- | A3 PE F4- | FEFG E[Q:1/4=60] MA2 M^G | %64
 [EA]8 ||[Q:1/4=110] z8 | A/G/F GA Ddc_B | A2 P=B2 c2 de | A2 z2 z4 | d/e/f ed aAB^c | d2 z2 z4 | %71
 A2 GA _BdcB | A2 GF A/=B/c BA | eEFG A2 PG>A | _BA/G/ A=B cedc | Bc B2 MA2 z2 | e/d/c de Aagf | %77
 e/f/e/d/ c/d/c/B/ cedc | B/c/B/A/"^(""^)" TA>^G A4 | z8 | z8 | z4 A/G/F GA | Ddc_B AdGc | %83
 F_BEA GA PG2 | A2 d2 c/_B/A B/A/G | A/G/F G/F/E F2 G2 | AB/^c/ Bc/d/ c4 | d/e/f ed aAB^c | %88
 dfeg fagf | eP^f g3 Mg =f2 | ef e2 d_BMAG |[Q:1/4=100] z f[Q:1/4=90]Med ^c[Q:1/4=40] Td2 c | %92
 !fermata![D^Fd]8 |] %93
V:2
 z8 | z8 | D4[I:staff +1] A,[I:staff -1]AGF | E/F/G C/D/E[I:staff +1] A,2 PB,2 | %4
[I:staff -1] CDEF GEFG/F/ | E4 F2 PG2 | A z/ G/ F z/ E/ F2 G2- | GF/E/ FG/F/ E2 PF2 | %8
 G z/ D/ E z/ B,/ CE/^F/ G2- | GF/G<MAG/ F4 | D^C/B,/ C2 [DF][EG][FA][GB] | %11
 [Ac] z/ [EG]/ [FA] z/ [^CE]/ D2 [=CE][B,D] | EC F2 z E A2- | AG/^F/ G2- G=F/E/ F2 | %14
 E3 F/G/ F2 PG2 | z z/ [EG]/ [FA] z/ [CE]/ [DF]2 G2- | GF E2 x4 | %17
 E/F/G C/D/E[I:staff +1] A,[I:staff -1]D[I:staff +1]A,[G,B,] | %18
 x4[I:staff -1] [EG] z/ [B,=F]/ [CE] z/ D/ | C3 D E4 | [CE]2 [DF]2 [EG] z/ [DF]/ [CE] z/ [B,D]/ | %21
 CE F3 F2 F- | FF PE2 F z/ E/ D z/ C/ | _B,2 PC2 D x3 | _B,GFE F/G/A D/E/F | EC FE D2 PE2 | %26
 F4- FGFE | F z z2 z F ED | ^C D2 C D4 ||[M:3/4] D2 A,AGF | E2 F2 G2 | C2 D2 E2 | F4 E2 | %33
 D2 C2 D2 | E2 D4 | E2 [CE]3 D | C2 F2 E2 | z6 | A2 Ddc_B | A2 P_B2 c2 | A=B Pc2 d2 | GcAdMcB | %42
 x2 F2 PG2 | A2 D F2 E | F4- FE | D4- DE | FC x4 | E2 z4 | d2 Adc_B | A2 P=B2 c2 | F2 PG2 A2 | %51
 z AGF E2 | z FED ^C2 | D4 E2 | F4 E2- | E2 D2 PC2 | D4- DPD | E3 D C2 | D2 C4 | %59
[M:4/4] C2 F>G A2 _B>c | d2 c_B A2 G2 | F2 MED E3 E | F^C D2- DCDB, | ^C2 D2 C2 PD2 | x8 || %65
 D/E/F ED AA,B,^C | D3 C _B,_BAG | F2 GF E A2 G | F2 EF GFEMG | FAGF EF E2 | D/E/F ED ECDE | %71
 F2 E2 D2 E2 | F2 ED E2 F2 | G2 z2 z4 | D/E/F ED E2 ^F2 | ^G A2 D CE P=F2 | G A2 MG F z z2 | z8 | %78
 z4 E/D/C DE | A,A=GF E D2 ^C | DFEG FAGF | EA PG2 FD =C2 | _B,CDE F2 E2 | D2 C>D E F2 E | %84
 F4 E F2 E- | E D2 P^C D2- D/D/E/D/ | ^C z PD z E4 | z4 A/G/F GA | z4 D/E/F ED | ^c2 de A2 d2 | %90
 A2 _B[A=c] [Fd]FMED | ^C2 DE F2 PE2 | x8 |] %93
V:3
 z8 | z8 | z8 | z8 | z8 | A,4 D,D=C_B, | A,/_B,/C F,/G,/A, D,2 E,2 | F,G,A,B, C2 PD2 | %8
 E z/ B,/ C z/ ^G,/ A,[I:staff -1]CD^C/D/ |[I:staff +1] C,2 ^C,2 D,E,F,E,/D,/ | A,4 z4 | z8 | %12
 A,3 B, C3 D | E3 D P^C2 D2- | D^C/B,/ C2 D2 z2 | x6 C2- | C>DEE,/G,/ A,[I:staff -1]AGF | %17
[I:staff +1] [A,C] z/ G,/ A, z/ E,/ ^F,3 x | %18
 [A,C][I:staff -1][B,D][CE][D^F][I:staff +1] x3 z/ =G,/ | A,3 B, C2 MB,2 | %20
 A,,A,G,F, E,/F,/G, C,/D,/E, | A,G,F,E, D,2 C,2 | G,4 F,2 z2 | z4 z z/ [A,C]/ [_B,D] z/ [^F,A,]/ | %24
 G,2 z2 z4 | x4 z4 | z2 A,2 D,DC_B, | A,/_B,/C F,/G,/A, D,E,/F,/ G,F, | E,D, ME,2 ^F,4 || %29
[M:3/4] z6 | A,2 D,DC_B, | A,2 _B,2 C2 | F,2 G,2 A,2- | A,[I:staff -1]=B,[I:staff +1] x4 | %34
 E,2 F,2 G,2 | C,3 D, B,2 | z A, D2 ^C2 | z6 | z6 | z6 |[K:treble] D2 A,AGF | E2 F2 G2 | %42
[K:bass] C2 D,DC_B, | A,2 _B,2 C2 | F,A,G,_B,A,C | _B,6 | x2 A,[I:staff -1]AGF | %47
[I:staff +1] x2 A, D2 ^C | D2 z2 z2 | z6 | z6 | A,2 _B,2 C2 | F,2 PG,2 A,2 | A,4 z2 | A,2 D,DC_B, | %55
 A,2 _B,2 C2- | CCM_B,A, B,2- | B,G,C_B, A,2 | G,4- G,_B, |[M:4/4]"_(Ped.)" A,4- A,>G,F,>E, | %60
 D,2 E,2 F,2 G,2 | A,2 MG,2 G,4 | F,3 G, A,3 ^G, | A,6 PB,2 | ^C8 || z8 | z8 | z8 | %68
 A,/G,/F, G,A, D,DC_B, | A,2 P=B,2 C2 z2 | D,D=C_B, A,2 G,2 | F,/G,/A,/F,/ C2 G,/A,/_B, A,G, | %72
 DD,E,F, C2 D2- | D^CD[I:staff -1]E F[I:staff +1]F, E,2 | F,2 z2 A,/B,/C B,A, | EE,^F,^G, A,CB,A, | %76
 B,A,B,^C DA, B,2 | =CFED EE, ^F,2 | ^G,A, B,2 A,4 | z4 A,/G,/F, G,A, | z8 | z8 | z8 | z8 | z8 | %85
 z8 | z8 | z8 | z8 |[I:staff -1] A[I:staff +1]A,B,^C D[I:staff -1]EFG | %90
"_(Ped.)"[I:staff +1] A,/G,/F, G,A, D,D=C_B, | A,2 G,2 A,4 | !fermata![D,A,]8 |] %93
V:4
 z8 | z8 | z8 | z8 | z8 | z8 | z8 | D,4 A,,A,G,F, | E,/F,/G, C,/D,/E, A,,2 B,,2 | x8 | x8 | x8 | %12
 z8 | z8 | A,4 D,D=C_B, | A,/_B,/C F,/G,/A, D,2 E,2 | F,2 ^C,2 [D,F,][E,G,][F,A,][G,B,] | %17
 x z/ E,/ F, z/ ^C,/ D,4 | z8 | z4 z2 E,2 | x8 | A,,2 D,C, _B,,2 A,,2 | %22
 _B,,2 PC,2 D, z/ A,,/ B,, z/ F,,/ | G,,G,F,E, D,/E,/F, _B,,/C,/D, | G,,2 G,2 D,/E,<F, E,/PD, | %25
 A,4 z _B,A,G, | F,/G,/A, D,/E,/F, _B,,2 C,2 | F,E,D,C, _B,,A,, G,,2 | A,,4 D,4 ||[M:3/4] z6 | z6 | %31
 z6 | z6 | D,2 A,,A,G,F, | x6 | x4 E,2 | F,3 D, A,2 | z6 | z6 | z6 |[K:treble] z6 | z6 | %42
[K:bass] A,2 x4 | x6 | x6 | x6 | F,4 G,2 | A,G, F,2 E,2 | D,4 E,2 | z F,E,D, C,2 | %50
 z D,C,_B,, A,,2 | z6 | z6 | D,2 D,,D,C,B,, | A,,2 P_B,,2 C,2 | F,,2 G,,2 A,,2 | D,,2 D,2 G,,G, | %57
 C,6 | =B,,2 C,4 |[M:4/4] F,4- F,>E,D,>C, | _B,,2 A,,G,, F,,2 E,,2 | D,,2 G,,2 C,2 ^C,2 | D,8 | %63
 A,,8- | A,,8 || x8 | x8 | D,/E,/F, E,D, A,A,,B,,^C, | D,2 =C,2 _B,,2 C,2 | D,2 z2 A,/G,/F, G,A, | %70
 x8 | x8 | x4 A,2 G,F, | E,2 D,2- D, D,2 ^C, | D,2 =C,B,, A,, z z2 | E,/D,/C, D,E, A,,A,=G,^F, | %76
 E, F,2 ME, D,/E,/F, E,D, | A,4 A,,/B,,/C, B,,A,, | E,4 A,,4 | z8 | z4 D,/E,/F, E,D, | %81
 A,A,,B,,^C, D,2 E,^F, | G,A,_B,C D/C/B, C/B,/A, | _B,/A,/G, A,/G,/F, C/B,/A,/B,/ C/G,/C, | %84
 F,/G,/F,/E,/ D,/E,/F,/G,/ A,DG,C | F,_B,G,A, D,/C,/_B,, B,2 | A,4- A,/^G,/A,/^C,/ E,/^G,,/A,, | %87
 z8 | x8 | z8 | x8 | x8 | x8 |] %93
V:5
 x8 | x8 | x8 | x8 | x8 | x8 | x8 | x8 | x8 | E3 E- ED/^C/ D2- | E3 G x4 | x4 FG/F/ x2 | x8 | x8 | %14
 x8 | A z/ x3/2 z/ x9/2 | x8 | x8 | x8 | x8 | x8 | x8 | x8 | x8 | x8 | x8 | x8 | x8 | x8 || %29
[M:3/4] x6 | x6 | x6 | x6 | x2 E2 F2 | G2 A2 G2- | G2 x4 | x6 | x6 | x6 | x6 | x6 | x6 | A4 P_B2 | %43
 x2 z4 | x6 | x2 z4 | A2 Ffed | x6 | x6 | x6 | x6 | x6 | x6 | x6 | x6 | x6 | x6 | x6 | x6 | %59
[M:4/4] x8 | x8 | x8 | x8 | x8 | x8 || x8 | x8 | x8 | x8 | x8 | F/G/A _B2 c2 B2 | x4 z4 | x4 z4 | %73
 x8 | x8 | x8 | x8 | x8 | x8 | x8 | x8 | x8 | x8 | x8 | x8 | x8 | x8 | x8 | Ddc_B A2 =B2 | x8 | %90
 ^c d2 x2 z z2 | A2 _B2 A3 G | x8 |] %93

